!!!!SEGMENT: pl-wn--sd-xvi-qu-273--107_gomolka-mikolaj--melodiae-na-psalterz-polski-cvii-chwalcie-pana-prze-dobroc-jego-niewymowna.krn
!!!cenid: 15xx:312
!!!COM: Gomółka, Mikołaj
!!!COM-rismID: pe30013343
!!!CDT: ~1535->1591/04/30
!!!CNT: Polish
!!!GTL: Melodiae na psalterz polski
!!!OTL: CVII. Chwalcie Pana prze dobroć Jego niewymowną,
!!!OMV: 107
!!!ONB:
!!!PDT: 1580
!!!AGN: Sacred
!!!SMS-siglum: PL-Wn
!!!SMS-shelfmark: SD XVI.Qu.273
!!!SMS-shelfwork: 001-107 G
!!!NIFC-rismSourceID: 990022100
!!!NIFC-rismChildID: 990022100
!!!NIFC-islandoraID: none
!!!URL-pdf-islandora:
!!!URL-scan: https://polona.pl/item/melodiae-na-psalterz-polski,Nzk3MTM4ODQ/247 @EN{Scan on Polona} @PL{Skany w portalu Polona}
!!!IIIF: https://polona.pl/iiif/item/Nzk3MTM4ODQ/manifest.json
!!!ONB-nifc: Melodiae na psalterz polski
!!!AIN: 1 alto 1 bass 1 soprn 1 tenor
!!!key: d:dor
**kern	**text	**kern	**text	**kern	**text	**kern	**text
*group1	*	*group1	*	*group1	*	*group1	*
*part4	*part4	*part3	*part3	*part2	*part2	*part1	*part1
*staff4	*staff4	*staff3	*staff3	*staff2	*staff2	*staff1	*staff1
*I"BASSVS.	*	*I"TENOR.	*	*I"ALTVS.	*	*I"CANTVS.	*
*clefF4	*	*clefC3	*	*clefC3	*	*clefC1	*
*Ibass	*	*Itenor	*	*Ialto	*	*Isoprn	*
*ICvox	*	*ICvox	*	*ICvox	*	*ICvox	*
*k[b-]	*	*k[b-]	*	*k[b-]	*	*k[b-]	*
*d:dor	*	*d:dor	*	*d:dor	*	*d:dor	*
*M2/1	*	*M2/1	*	*M2/1	*	*M2/1	*
*met(c|)	*	*met(c|)	*	*met(c|)	*	*met(c|)	*
*MM300	*	*MM300	*	*MM300	*	*MM300	*
=1-	=1-	=1-	=1-	=1-	=1-	=1-	=1-
*xywh-113v:1825,5362,4706,1302	*	*xywh-113v:1806,4078,4696,1255	*	*xywh-113v:1816,2785,4696,1312	*	*xywh-113v:1787,1274,4649,1530	*
!LO:TX:t=P:problem=all\middle&colon; global	!	!LO:TX:t=P:problem=all\middle&colon; global	!	!LO:TX:t=P:problem=all\middle&colon; global	!	!LO:TX:t=P:problem=all\middle&colon; global	!
!LO:TX:t=P:problem=all/middle&colon; global	!	!LO:TX:t=P:problem=all/middle&colon; global	!	!LO:TX:t=P:problem=all/middle&colon; global	!	!LO:TX:t=P:problem=all/middle&colon; global	!
1D	Chwal-	1F	Chwal-	2.A/	Chwal-	1d	Chwal-
.	.	.	.	4B-/	.	.	.
2C/	-ćie	2G/	-ćie	2c/	-ćie	2e/	-ćie
2C/	pá-	2G/	pá-	2c/	pá-	2e/	pá-
=2-	=2-	=2-	=2-	=2-	=2-	=2-	=2-
2FF/	-ná	1.A	-ná	2c/	-ná	2f/	-ná
1F	prze	.	.	1c	prze	2.f/	prze
.	.	.	.	.	.	4g/	.
2D/	dob-	2A/	prze	2f\	dob-	4a\	dob-
.	.	.	.	.	.	4b-\	.
=3-	=3-	=3-	=3-	=3-	=3-	=3-	=3-
2E\	-roć	2G/	dob-	4e\	-roć	4cc\	-roć
.	.	.	.	4d\	.	4b-\	.
2F\	ie-	2A/	-roć	4c/	.	1a	ié-
.	.	.	.	4A/	.	.	.
1G	-go	1B-	ie-	2.d\	ie-	.	.
.	.	.	.	.	.	2g/	.
.	.	.	.	4e\	.	.	.
=4-	=4-	=4-	=4-	=4-	=4-	=4-	=4-
2D/	nie-	2A/	-go	2f\	-go	2a\	-go
1B-	-wy-	1d	nie-	2.d\	nie-	1f	nie-
.	.	.	.	4e\	-wy-	.	.
2A\	-mow-	2c/	-wy-	1f	-mow-	2f/	-wy-
=5-	=5-	=5-	=5-	=5-	=5-	=5-	=5-
1G	.	1B-	-mow-	.	.	1g	-mow-
.	.	.	.	2e\	.	.	.
2F\	-ną/	2A/	-ną/	2f\	-ną/	2a\	-ną/
2G\	Chwal-	2d\	Chwal-	4B-/	Chwal-	2b-\	Chwal-
.	.	.	.	4c/	.	.	.
=6-	=6-	=6-	=6-	=6-	=6-	=6-	=6-
2F\	-ćie	2d\	-ćie	2.d\	-ćie	2a\	-ćie
2G#\	prze	2d\	prze	.	.	2g/	prze
.	.	.	.	4e\	prze	.	.\
!LO:PB:g=original	!	!LO:PB:g=original	!	!LO:PB:g=original	!	!LO:PB:g=original	!
=-	=-	=-	=-	=-	=-	=-	=-
*xywh-114r:510,5236,5010,1285	*	*xywh-114r:501,4006,4992,1201	*	*xywh-114r:519,2777,5020,1201	*	*xywh-114r:519,1182,5001,1567	*
2A\	li-	2c/	li-	4f\	li-	2.f/	li-
.	.	.	.	4e\	.	.	.
2B-\	-tość	2d\	-tość	1d	-tość	.	.
.	.	.	.	.	.	4g/	-tość
=7-	=7-	=7-	=7-	=7-	=7-	=7-	=7-
1A	wie(cz):-	1e	wie(cz):-	.	.	2a\	wie(cz):-
.	.	.	.	2c/	wie(cz):-	1a	-(noś-
2D/	-(noś-	2d\	-(noś-	2f\	-(noś-	.	.
2A\	-ci)	2c/	-ci)	2F/	-ci)	2f/	-ci)
=8-	=8-	=8-	=8-	=8-	=8-	=8-	=8-
2Gny\	row-	2d\	row-	2B-/	row-	2g/	row-
1F	.	2f\	.	4A/	.	2a\	.
.	.	.	.	4B-/	.	.	.
.	.	1c	.	1c	.	1g	.
2E\	.	.	.	.	.	.	.
=9-	=9-	=9-	=9-	=9-	=9-	=9-	=9-
2F\	-ną.	2A/	-ną.	2c/	-ną.	2f/	-ną.
2F\	A	2c/	A	2c/	A	2a\	A
2F\	wy	2A/	wy	2d\	wy	2dd\	wy
2G\	więc	2B-/	więc	2e\	więc	4cc\	więc
.	.	.	.	.	.	4b-\	.
=10-	=10-	=10-	=10-	=10-	=10-	=10-	=10-
2A\	na-	1c	na-	1e	na-	2a\	na-
2AA/	.	.	.	.	.	1a	-przód/
2AA/	-przód/	2c/	-przód/	2e\	-przód/	.	.
2BB-/	coś-	2B-/	coś-	2d\	coś-	2g\	coś-
=11-	=11-	=11-	=11-	=11-	=11-	=11-	=11-
2AA/	-ćie	2c/	-ćie	2e\	-ćie	2a\	-ćie
2AA/	z rąk	2A/	z rąk	2e\	z rąk	2cc\	z rąk
2.D/	wy-	2B-/	wy-	2d\	wy-	2b-\	wy-
.	.	2c/	-ſwo-	2e\	-ſwo-	2a\	-ſwo-
4C/	.	.	.	.	.	.	.
=12-	=12-	=12-	=12-	=12-	=12-	=12-	=12-
4BB-/	-ſwo-	2d\	-bo-	2f\	-bo-	2a\	-bo-
4AA/	-bo-	.	.	.	.	.	.
2BB-/	-dze-	2d\	-dze-	4e\	-dze-	2g/	-dze-
.	.	.	.	4d\	.	.	.
!LO:PB:g=original	!	!LO:PB:g=original	!	!LO:PB:g=original	!	!LO:PB:g=original	!
=-	=-	=-	=-	=-	=-	=-	=-
*xywh-114v:1483,5305,4335,1369	*	*xywh-114v:1493,4116,4449,1188	*	*xywh-114v:1445,2871,4696,1217	*	*xywh-114v:1407,1302,4554,1530	*
2AA/	-ni	2c/	-ni	2.e\	-ni	2a\	-ni
2A\	Nie-	2c/	Nie-	.	.	2a\	Nie-
.	.	.	.	4f\	Nie-	.	.
=13-	=13-	=13-	=13-	=13-	=13-	=13-	=13-
2G\	-przy-	2d\	-przy-	2g\	-przy-	2b-\	-przy-
2A\	-ia-	4f\	-ia-	2c/	-ia-	2cc\	-ia-
.	.	4e\	.	.	.	.	.
1B-	-ćiel-	4d\	.	1d	-ćiel-	2.f/	-ćiel-
.	.	4c\	.	.	.	.	.
.	.	2d\	-ćiel-	.	.	.	.
.	.	.	.	.	.	4g/	.
=14-	=14-	=14-	=14-	=14-	=14-	=14-	=14-
2A\	-ſkich/	2c#X\	-ſkich/	2e\	-ſkich/	2a\	-ſkich/
2.F\	y	2.A/	y	2f\	y	2.a\	y
.	.	.	.	2f\	zgro-	.	.
4G\	zgro-	4B-/	zgro-	.	.	4g/	zgro-
2A\	-má-	2c#/	-má-	2c/	-má-	1f	-má-
=15-	=15-	=15-	=15-	=15-	=15-	=15-	=15-
1G	-dze-	2.B-/	-dze-	2.d\	-dze-	.	.
.	.	.	.	.	.	2e/	-dze-
.	.	8A/	.	8c/	.	.	.
.	.	8G/	.	8B-/	.	.	.
!	!	!stem left	!	!	!	!	!
1F	-ni.	0.A/ll	-ni.	0.c\ll	-ni.	0.f/ll	-ni.
1FF/ll	.	.	.	.	.	.	.
==-	==-	==-	==-	==-	==-	==-	==-
*-	*-	*-	*-	*-	*-	*-	*-
!!!system-decoration: [g1]
!!!RDF**kern: l = terminal long
!!!ENC: Jacek Iwaszko
!!!EEV: 2021-11-29
!!!EED: Jędrzej Mróz
!!!EST: 2021-12-17
!!!ENC-iiif: Craig Stuart Sapp
!!!END: 2021-12-07
!!!YEC: Copyright 2022 Narodowy Instytut Fryderyka Chopina (https://polishscores.org)
!!!YEM: License CC-BY-4.0 (https://creativecommons.org/licenses/by/4.0)
